X: 30940
T: Over The Waterfall
R: reel
M: 4/4
K: Dmajor
|:z2|f2a2 gfe2|dedB A2de|f2a2 gfe2|f6 de|
f2a2 gfe2|dedB A2AB|=c2c2 B2A2|G6:|
|:FG|A2AA B2B2|ABAG F2FG|A2d2 cde2|f6 FG|
A2AA B2B2|ABAG F2FG|A2AA GFE2|D6:|

